packages/core/src/svgs/tokens/branded/RVC.svg

<svg width="24" height="24" viewBox="0 0 24 24" fill="none" xmlns="http://www.w3.org/2000/svg">
<path d="M15.5105 4.61578L9.5708 6.52396L16.1646 7.39551L15.5105 4.61578Z" fill="#A6FFA9"/>
<path d="M9.46191 6.35946L10.2241 4.94255L13.4939 3.63495L9.46191 6.35946Z" fill="#27A986"/>
<path d="M10.2236 4.83383L10.6056 3.74368L13.276 3.63495L10.2236 4.83383Z" fill="#054034"/>
<path d="M14.6392 4.01636L15.0205 2.98087L15.4567 4.39776L14.6392 4.01636Z" fill="#27A986"/>
<path d="M14.5832 4.01637L14.9646 2.98088L13.0576 2.16397L14.5832 4.01637Z" fill="#A6FFA9"/>
<path d="M12.7852 2.05466L11.4771 2.6541L14.4742 3.9617L12.7852 2.05466ZM14.2562 2H12.8393L15.0195 2.87212L14.2562 2Z" fill="#27A986"/>
<path d="M15.1289 3.03549V2.8721L18.0421 3.69014C18.0956 3.70478 18.0951 3.78084 18.041 3.79492L15.5638 4.4524L15.1289 3.03549Z" fill="#A6FFA9"/>
<path d="M10.606 3.63496L11.478 2.76285L13.3316 3.58032L10.606 3.63496Z" fill="#27A986"/>
<path d="M13.6025 3.68964L9.51562 6.41415L15.456 4.50711L13.6025 3.68964Z" fill="#054034"/>
<path d="M16.164 7.50428L9.40674 6.57751L14.6383 18.2395L16.164 7.50428Z" fill="#27A986"/>
<path d="M14.7466 18.022L16.2728 7.61296L17.2531 8.81184L14.7466 18.022ZM14.5287 18.24L9.35116 6.68677L11.2587 18.1307L14.5287 18.24ZM11.2047 18.1854L9.297 6.74141L5.91846 22L11.2047 18.1854Z" fill="#054034"/>
</svg>

<svg xmlns="http://www.w3.org/2000/svg" width="24" height="24" fill="none" viewBox="0 0 24 24">
    <path fill="#A6FFA9" d="M15.51 4.616 9.57 6.524l6.595.872z"/>
    <path fill="#27A986" d="m9.462 6.36.762-1.417 3.27-1.308z"/>
    <path fill="#054034" d="m10.224 4.834.382-1.09 2.67-.11z"/>
    <path fill="#27A986" d="m14.64 4.016.38-1.035.437 1.417z"/>
    <path fill="#A6FFA9" d="m14.583 4.016.382-1.035-1.907-.817z"/>
    <path fill="#27A986" d="m12.785 2.055-1.308.6 2.997 1.307zM14.256 2H12.84l2.18.872z"/>
    <path fill="#A6FFA9" d="M15.129 3.035v-.163l2.913.818c.054.015.053.09-.001.105l-2.477.657z"/>
    <path fill="#27A986" d="m10.606 3.635.872-.872 1.854.817z"/>
    <path fill="#054034" d="M13.603 3.69 9.516 6.414l5.94-1.907z"/>
    <path fill="#27A986" d="m16.164 7.504-6.757-.926 5.231 11.662z"/>
    <path fill="#054034" d="m14.747 18.022 1.526-10.409.98 1.199zm-.218.218L9.35 6.687l1.91 11.443zm-3.324-.055L9.297 6.741 5.918 22z"/>
</svg>
